static/assets/template/assets/img/icons/essential/detailed/Apple_Watch.svg

<svg height="147" viewBox="0 0 84 147" width="84" xmlns="http://www.w3.org/2000/svg"><g fill="none" fill-rule="evenodd" transform="translate(1 2)"><path d="m77.7 66.1h-2.9c-2 0-3.6-1.6-3.6-3.6v-8.7c0-2 1.6-3.6 3.6-3.6h2.9c2 0 3.6 1.6 3.6 3.6v8.7c.1 2-1.6 3.6-3.6 3.6z" fill-rule="nonzero"/><path d="m78 66.1h-3.4c-1.9 0-3.4-1.5-3.4-3.4v-7c0-1.9 1.5-3.4 3.4-3.4h3.4c1.9 0 3.4 1.5 3.4 3.4v7c0 1.9-1.5 3.4-3.4 3.4z" fill-rule="nonzero"/><path d="m77.7 66.1h-2.9c-2 0-3.6-1.6-3.6-3.6v-8.7c0-2 1.6-3.6 3.6-3.6h2.9c2 0 3.6 1.6 3.6 3.6v8.7c.1 2-1.6 3.6-3.6 3.6z" stroke-linecap="round" stroke-linejoin="round" stroke-width="3"/><path d="m63.2 31.8c-3.8-7.8-2.6-12.2-4-20.5-1.6-9-3-10.9-9-11-5.3 0-8.3 0-13.6.1h-.1c-5.3 0-5.5-.1-10.8-.1-6 0-7.4 2-9 11-1.5 8.3-.2 12.7-4 20.5z" fill-rule="nonzero"/><path d="m63.2 31.8c-3.6-7-2.5-10.9-3.9-18.3-1.5-8-2.9-9.8-8.7-9.8-5.1 0-8.1 0-13.2.1h-.1c-5.1 0-5.3-.1-10.5-.1-5.8 0-7.2 1.8-8.7 9.8-1.4 7.4-.2 11.3-3.9 18.3z" fill-rule="nonzero"/><path d="m61 25.8c-1.1-4.6-.8-8.5-1.8-14.5-1.6-9-3-10.9-9-11-5.3 0-8.3 0-13.6.1h-.1c-5.3 0-5.5-.1-10.8-.1-6 0-7.4 2-9 11-1.5 8.3-.2 12.7-4 20.5h50.5" stroke-linecap="round" stroke-linejoin="round" stroke-width="3"/><path d="m63.2 111.5c-3.8 7.8-2.6 12.2-4 20.5-1.6 9-3 10.9-9 11-5.3 0-8.3 0-13.6-.1h-.1c-5.3 0-5.5.1-10.8.1-6 0-7.4-2-9-11-1.5-8.3-.2-12.7-4-20.5z" fill-rule="nonzero"/><path d="m63.2 111.5c-3.8 7.8-2.6 12.2-4 20.5-1.6 9-3 10.9-9 11-5.3 0-8.3 0-13.6-.1h-.1c-5.3 0-5.5.1-10.8.1-6 0-7.4-2-9-11-1.5-8.3-.2-12.7-4-20.5z" fill-rule="nonzero"/><path d="m60.9 111.5c-1 4.4-.7 8.2-1.7 13.9-1.6 9-3 10.9-9 11-5.3 0-8.3 0-13.6-.1h-.1c-5.3 0-5.5.1-10.8.1-6 0-7.4-2-9-11-1-5.7-.7-9.5-1.7-13.9z" fill-rule="nonzero"/><path d="m63.1 111.7c-3.6 7.7-2.5 12-3.9 20.3-1.6 9-3 10.9-9 11-5.3 0-8.3 0-13.6-.1h-.1c-5.3 0-5.5.1-10.8.1-6 0-7.4-2-9-11-1.5-8.3-.2-12.7-4-20.5" stroke-linecap="round" stroke-linejoin="round" stroke-width="3"/><path d="m75 71.6v26.5c0 8.2-5 13.6-13.2 13.7-15.6.2-31.1.1-46.7 0-5.1 0-9.7-1.6-12.3-6.3-1.2-2.1-1.8-4.9-1.8-7.3-.1-17.7-.1-35.5-.1-53.2 0-7.9 5.1-13.3 13.1-13.4 16.1-.2 32.1-.2 48.2 0 7.7.1 12.8 5.4 12.8 13.1z" fill-rule="nonzero"/><path d="m75 74.1v-3c0-5.3 0-10.5 0-15.8 0-2.2 0-4.4 0-6.6 0-7.2-4.9-12.2-12.2-12.2-15.3-.1-30.7-.2-46 0-7.7.1-12.5 5.2-12.5 12.6v19c0 10.3 0 20.6.1 30.9 0 2.3.6 4.9 1.7 6.9 2.5 4.4 6.9 5.9 11.8 5.9 14.9 0 29.7.1 44.6 0 7.8-.1 12.6-5.1 12.6-12.8 0-5.5 0-11.1 0-16.6-.1-2.8-.1-5.6-.1-8.3z" fill="#c4e0ff" fill-rule="nonzero"/><path d="m75 65.2c0-3.3 0-6.6 0-9.9 0-2.2 0-4.4 0-6.6 0-7.2-4.9-12.2-12.2-12.2-15.3-.1-30.7-.2-46 0-7.7.1-12.5 5.2-12.5 12.6v19c0 7.4 0 14.7.1 22.1 0 2.3.6 4.9 1.7 6.9 2.5 4.4 6.9 5.9 11.8 5.9 14.9 0 29.7.1 44.6 0 7.8-.1 12.6-5.1 12.6-12.8 0-2.6 0-5.1 0-7.7 0-3.7 0-7.5 0-11.2v-6.1z" fill-rule="nonzero"/><path d="m13.9 111.7c-4.6-.3-8.7-2-11.1-6.2-1.2-2.1-1.8-4.9-1.8-7.3-.1-17.7-.1-35.5-.1-53.2 0-2.5.5-4.7 1.4-6.6m45.4 73.4h-6c-5.7 0-11.4 0-17.1 0m-13.7-80c1-.2 2-.3 3.1-.3 16.1-.2 32.1-.2 48.2 0 7.7.1 12.8 5.4 12.8 13.1v27.1 26.5c0 8.2-5 13.6-13.2 13.7-3.6 0-7.2.1-10.8.1m-46.6-76.7c.1-.1.1-.1.2-.2" stroke-linecap="round" stroke-linejoin="round" stroke-width="3"/><circle cx="38.4" cy="71.8" fill-rule="nonzero" r="8.6"/><circle cx="28.3" cy="53.9" fill-rule="nonzero" r="5.7"/><circle cx="50.335844" cy="54.033191" fill-rule="nonzero" r="5.700142" transform="matrix(.99757522 -.06959654 .06959654 .99757522 -3.63847 3.634219)"/><circle cx="28.3" cy="89.5" fill-rule="nonzero" r="5.7"/><circle cx="50.336842" cy="89.634051" fill-rule="nonzero" r="5.700142" transform="matrix(.99757522 -.06959654 .06959654 .99757522 -6.116164 3.720613)"/><circle cx="19.9" cy="71.8" fill-rule="nonzero" r="5.7"/><circle cx="57.536173" cy="71.929524" fill-rule="nonzero" r="5.700142" transform="matrix(.99757522 -.06959654 .06959654 .99757522 -4.866533 4.178732)"/><g stroke-linecap="round" stroke-linejoin="round"><path d="m46.9 73.2c-.7 4.1-4.2 7.1-8.4 7.1-4.7 0-8.6-3.8-8.6-8.6 0-1.2.3-2.4.7-3.5" stroke-width="3"/><path d="m45.8 67.5c.1.1.1.2.2.3" stroke-width="3"/><path d="m33.4 64.9c1.4-1 3.1-1.6 5-1.6 2.1 0 4 .7 5.5 2" stroke-width="3"/><path d="m33.7 52.2c.2.5.3 1.1.3 1.7 0 3.2-2.6 5.7-5.7 5.7-.8 0-1.6-.2-2.4-.5" stroke-width="3"/><path d="m23 56.2c-.3-.7-.5-1.5-.5-2.3 0-3.2 2.6-5.7 5.7-5.7.8 0 1.5.2 2.2.4" stroke-width="3"/><circle cx="50.335844" cy="54.033191" r="5.700142" stroke-width="3.000075" transform="matrix(.99757522 -.06959654 .06959654 .99757522 -3.63847 3.634219)"/><circle cx="28.3" cy="89.5" r="5.7" stroke-width="3"/><path d="m50.9 83.8c2.7.3 4.9 2.5 5.1 5.3.2 3.1-2.2 5.9-5.3 6.1s-5.9-2.2-6.1-5.3" stroke-width="3"/><path d="m46.8 85.1c.1-.1.1-.1.2-.2" stroke-width="3"/><circle cx="19.9" cy="71.8" r="5.7" stroke-width="3"/><circle cx="57.536173" cy="71.929524" r="5.700142" stroke-width="3.000075" transform="matrix(.99757522 -.06959654 .06959654 .99757522 -4.866533 4.178732)"/></g></g></svg>

<?xml version="1.0" encoding="UTF-8"?>
<svg width="84px" height="147px" viewBox="0 0 84 147" version="1.1" xmlns="http://www.w3.org/2000/svg" xmlns:xlink="http://www.w3.org/1999/xlink">
    <!-- Generator: Sketch 51.2 (57519) - http://www.bohemiancoding.com/sketch -->
    <title>Apple_Watch</title>
    <desc>Created with Sketch.</desc>
    <defs></defs>
    <g id="Page-1" stroke="none" stroke-width="1" fill="none" fill-rule="evenodd">
        <g id="Apple_Watch" transform="translate(1.000000, 2.000000)">
            <path d="M77.7,66.1 L74.8,66.1 C72.8,66.1 71.2,64.5 71.2,62.5 L71.2,53.8 C71.2,51.8 72.8,50.2 74.8,50.2 L77.7,50.2 C79.7,50.2 81.3,51.8 81.3,53.8 L81.3,62.5 C81.4,64.5 79.7,66.1 77.7,66.1 Z" id="Shape" class="fill-neutral" fill-rule="nonzero"></path>
            <path d="M78,66.1 L74.6,66.1 C72.7,66.1 71.2,64.6 71.2,62.7 L71.2,55.7 C71.2,53.8 72.7,52.3 74.6,52.3 L78,52.3 C79.9,52.3 81.4,53.8 81.4,55.7 L81.4,62.7 C81.4,64.6 79.9,66.1 78,66.1 Z" id="Shape" class="fill-primary-300" fill-rule="nonzero"></path>
            <path d="M77.7,66.1 L74.8,66.1 C72.8,66.1 71.2,64.5 71.2,62.5 L71.2,53.8 C71.2,51.8 72.8,50.2 74.8,50.2 L77.7,50.2 C79.7,50.2 81.3,51.8 81.3,53.8 L81.3,62.5 C81.4,64.5 79.7,66.1 77.7,66.1 Z" id="Shape" class="stroke-primary" stroke-width="3" stroke-linecap="round" stroke-linejoin="round"></path>
            <path d="M63.2,31.8 C59.4,24 60.6,19.6 59.2,11.3 C57.6,2.3 56.2,0.4 50.2,0.3 C44.9,0.3 41.9,0.3 36.6,0.4 L36.5,0.4 C31.2,0.4 31,0.3 25.7,0.3 C19.7,0.3 18.3,2.3 16.7,11.3 C15.2,19.6 16.5,24 12.7,31.8 L63.2,31.8 Z" id="Shape" class="fill-neutral" fill-rule="nonzero"></path>
            <path d="M63.2,31.8 C59.6,24.8 60.7,20.9 59.3,13.5 C57.8,5.5 56.4,3.7 50.6,3.7 C45.5,3.7 42.5,3.7 37.4,3.8 L37.3,3.8 C32.2,3.8 32,3.7 26.8,3.7 C21,3.7 19.6,5.5 18.1,13.5 C16.7,20.9 17.9,24.8 14.2,31.8 L63.2,31.8 Z" id="Shape" class="fill-primary-300" fill-rule="nonzero"></path>
            <path d="M61,25.8 C59.9,21.2 60.2,17.3 59.2,11.3 C57.6,2.3 56.2,0.4 50.2,0.3 C44.9,0.3 41.9,0.3 36.6,0.4 L36.5,0.4 C31.2,0.4 31,0.3 25.7,0.3 C19.7,0.3 18.3,2.3 16.7,11.3 C15.2,19.6 16.5,24 12.7,31.8 L63.2,31.8" id="Shape" class="stroke-primary" stroke-width="3" stroke-linecap="round" stroke-linejoin="round"></path>
            <path d="M63.2,111.5 C59.4,119.3 60.6,123.7 59.2,132 C57.6,141 56.2,142.9 50.2,143 C44.9,143 41.9,143 36.6,142.9 L36.5,142.9 C31.2,142.9 31,143 25.7,143 C19.7,143 18.3,141 16.7,132 C15.2,123.7 16.5,119.3 12.7,111.5 L63.2,111.5 Z" id="Shape" class="fill-neutral" fill-rule="nonzero"></path>
            <path d="M63.2,111.5 C59.4,119.3 60.6,123.7 59.2,132 C57.6,141 56.2,142.9 50.2,143 C44.9,143 41.9,143 36.6,142.9 L36.5,142.9 C31.2,142.9 31,143 25.7,143 C19.7,143 18.3,141 16.7,132 C15.2,123.7 16.5,119.3 12.7,111.5 L63.2,111.5 Z" id="Shape" class="fill-primary-400" fill-rule="nonzero"></path>
            <path d="M60.9,111.5 C59.9,115.9 60.2,119.7 59.2,125.4 C57.6,134.4 56.2,136.3 50.2,136.4 C44.9,136.4 41.9,136.4 36.6,136.3 L36.5,136.3 C31.2,136.3 31,136.4 25.7,136.4 C19.7,136.4 18.3,134.4 16.7,125.4 C15.7,119.7 16,115.9 15,111.5 L60.9,111.5 Z" id="Shape" class="fill-primary-300" fill-rule="nonzero"></path>
            <path d="M63.1,111.7 C59.5,119.4 60.6,123.7 59.2,132 C57.6,141 56.2,142.9 50.2,143 C44.9,143 41.9,143 36.6,142.9 L36.5,142.9 C31.2,142.9 31,143 25.7,143 C19.7,143 18.3,141 16.7,132 C15.2,123.7 16.5,119.3 12.7,111.5" id="Shape" class="stroke-primary" stroke-width="3" stroke-linecap="round" stroke-linejoin="round"></path>
            <path d="M75,71.6 C75,80.4 75,89.2 75,98.1 C75,106.3 70,111.7 61.8,111.8 C46.2,112 30.7,111.9 15.1,111.8 C10,111.8 5.4,110.2 2.8,105.5 C1.6,103.4 1,100.6 1,98.2 C0.9,80.5 0.9,62.7 0.9,45 C0.9,37.1 6,31.7 14,31.6 C30.1,31.4 46.1,31.4 62.2,31.6 C69.9,31.7 75,37 75,44.7 C75,53.5 75,62.6 75,71.6 Z" id="Shape" class="fill-neutral" fill-rule="nonzero"></path>
            <path d="M75,74.1 L75,71.1 C75,65.8 75,60.6 75,55.3 C75,53.1 75,50.9 75,48.7 C75,41.5 70.1,36.5 62.8,36.5 C47.5,36.4 32.1,36.3 16.8,36.5 C9.1,36.6 4.3,41.7 4.3,49.1 C4.3,55.4 4.3,61.7 4.3,68.1 C4.3,78.4 4.3,88.7 4.4,99 C4.4,101.3 5,103.9 6.1,105.9 C8.6,110.3 13,111.8 17.9,111.8 C32.8,111.8 47.6,111.9 62.5,111.8 C70.3,111.7 75.1,106.7 75.1,99 C75.1,93.5 75.1,87.9 75.1,82.4 C75,79.6 75,76.8 75,74.1 Z" id="Shape" fill="#C4E0FF" fill-rule="nonzero"></path>
            <path d="M75,65.2 C75,61.9 75,58.6 75,55.3 C75,53.1 75,50.9 75,48.7 C75,41.5 70.1,36.5 62.8,36.5 C47.5,36.4 32.1,36.3 16.8,36.5 C9.1,36.6 4.3,41.7 4.3,49.1 C4.3,55.4 4.3,61.7 4.3,68.1 C4.3,75.5 4.3,82.8 4.4,90.2 C4.4,92.5 5,95.1 6.1,97.1 C8.6,101.5 13,103 17.9,103 C32.8,103 47.6,103.1 62.5,103 C70.3,102.9 75.1,97.9 75.1,90.2 C75.1,87.6 75.1,85.1 75.1,82.5 C75.1,78.8 75.1,75 75.1,71.3 L75.1,65.2 L75,65.2 Z" id="Shape" class="fill-primary-100" fill-rule="nonzero"></path>
            <path d="M13.9,111.7 C9.3,111.4 5.2,109.7 2.8,105.5 C1.6,103.4 1,100.6 1,98.2 C0.9,80.5 0.9,62.7 0.9,45 C0.9,42.5 1.4,40.3 2.3,38.4 M47.7,111.8 L41.7,111.8 C36,111.8 30.3,111.8 24.6,111.8 M10.9,31.8 C11.9,31.6 12.9,31.5 14,31.5 C30.1,31.3 46.1,31.3 62.2,31.5 C69.9,31.6 75,36.9 75,44.6 C75,53.6 75,62.6 75,71.7 C75,80.5 75,89.3 75,98.2 C75,106.4 70,111.8 61.8,111.9 C58.2,111.9 54.6,112 51,112 M4.4,35.3 C4.5,35.2 4.5,35.2 4.6,35.1" id="Shape" class="stroke-primary" stroke-width="3" stroke-linecap="round" stroke-linejoin="round"></path>
            <circle id="Oval" class="fill-primary-300" fill-rule="nonzero" cx="38.4" cy="71.8" r="8.6"></circle>
            <circle id="Oval" class="fill-primary-300" fill-rule="nonzero" cx="28.3" cy="53.9" r="5.7"></circle>
            <circle id="Oval" class="fill-primary-300" fill-rule="nonzero" transform="translate(50.335844, 54.033191) rotate(-3.990814) translate(-50.335844, -54.033191) " cx="50.3358443" cy="54.0331914" r="5.70014158"></circle>
            <circle id="Oval" class="fill-primary-300" fill-rule="nonzero" cx="28.3" cy="89.5" r="5.7"></circle>
            <circle id="Oval" class="fill-primary-300" fill-rule="nonzero" transform="translate(50.336842, 89.634051) rotate(-3.990814) translate(-50.336842, -89.634051) " cx="50.3368424" cy="89.6340514" r="5.70014158"></circle>
            <circle id="Oval" class="fill-primary-300" fill-rule="nonzero" cx="19.9" cy="71.8" r="5.7"></circle>
            <circle id="Oval" class="fill-primary-300" fill-rule="nonzero" transform="translate(57.536173, 71.929524) rotate(-3.990814) translate(-57.536173, -71.929524) " cx="57.5361732" cy="71.9295239" r="5.70014158"></circle>
            <path d="M46.9,73.2 C46.2,77.3 42.7,80.3 38.5,80.3 C33.8,80.3 29.9,76.5 29.9,71.7 C29.9,70.5 30.2,69.3 30.6,68.2" id="Shape" class="stroke-primary" stroke-width="3" stroke-linecap="round" stroke-linejoin="round"></path>
            <path d="M45.8,67.5 C45.9,67.6 45.9,67.7 46,67.8" id="Shape" class="stroke-primary" stroke-width="3" stroke-linecap="round" stroke-linejoin="round"></path>
            <path d="M33.4,64.9 C34.8,63.9 36.5,63.3 38.4,63.3 C40.5,63.3 42.4,64 43.9,65.3" id="Shape" class="stroke-primary" stroke-width="3" stroke-linecap="round" stroke-linejoin="round"></path>
            <path d="M33.7,52.2 C33.9,52.7 34,53.3 34,53.9 C34,57.1 31.4,59.6 28.3,59.6 C27.5,59.6 26.7,59.4 25.9,59.1" id="Shape" class="stroke-primary" stroke-width="3" stroke-linecap="round" stroke-linejoin="round"></path>
            <path d="M23,56.2 C22.7,55.5 22.5,54.7 22.5,53.9 C22.5,50.7 25.1,48.2 28.2,48.2 C29,48.2 29.7,48.4 30.4,48.6" id="Shape" class="stroke-primary" stroke-width="3" stroke-linecap="round" stroke-linejoin="round"></path>
            <circle id="Oval" class="stroke-primary" stroke-width="3.00007452" stroke-linecap="round" stroke-linejoin="round" transform="translate(50.335844, 54.033191) rotate(-3.990814) translate(-50.335844, -54.033191) " cx="50.3358443" cy="54.0331914" r="5.70014158"></circle>
            <circle id="Oval" class="stroke-primary" stroke-width="3" stroke-linecap="round" stroke-linejoin="round" cx="28.3" cy="89.5" r="5.7"></circle>
            <path d="M50.9,83.8 C53.6,84.1 55.8,86.3 56,89.1 C56.2,92.2 53.8,95 50.7,95.2 C47.6,95.4 44.8,93 44.6,89.9" id="Shape" class="stroke-primary" stroke-width="3" stroke-linecap="round" stroke-linejoin="round"></path>
            <path d="M46.8,85.1 C46.9,85 46.9,85 47,84.9" id="Shape" class="stroke-primary" stroke-width="3" stroke-linecap="round" stroke-linejoin="round"></path>
            <circle id="Oval" class="stroke-primary" stroke-width="3" stroke-linecap="round" stroke-linejoin="round" cx="19.9" cy="71.8" r="5.7"></circle>
            <circle id="Oval" class="stroke-primary" stroke-width="3.00007452" stroke-linecap="round" stroke-linejoin="round" transform="translate(57.536173, 71.929524) rotate(-3.990814) translate(-57.536173, -71.929524) " cx="57.5361732" cy="71.9295239" r="5.70014158"></circle>
        </g>
    </g>
</svg>
